X: 43
T: No_137_Sandhill_Crane_Dance_Song_(a).krn
N: Derived from No_137_Sandhill_Crane_Dance_Song_(a).krn
%%abc-version 2.0
%%abcx-abcm2ps-target-version 5.9.1 (29 Sep 2008)
%%abc-creator hum2abc beta
%%abcx-conversion-date 2019/03/15 08:38:45
%%humdrum-veritas 1222989789
%%humdrum-veritas-data 2453089573
%%linebreak <none>
%%barnumbers 0
L: 1/8
M: 3/4
K: Db clef=bass
[K:clef=bass][M:3/4]A,4A,A, [I:setbarnb 2]| 
A,2E,2A,A, ||  
[M:2/4]A,4 | 
A,2E,2 | 
A,G,E,2 | 
D,2D,B,, | 
A,,3z ||  
[M:3/4]G,,4G,,G,, ||  
[M:2/4]D,4 ||  
[M:3/4]D,2D,B,, A,, z :|]  
[M:2/4]D,2D,B,, | 
A,, z E,E, | 
E,4- | 
E,4- | 
E,2z2



